preferences/32/preferences-scroll.svg

<?xml version="1.0" encoding="UTF-8" standalone="no"?>
<!-- Created with Inkscape (http://www.inkscape.org/) -->

<svg
   width="32"
   height="32"
   version="1.1"
   viewBox="0 0 32 32"
   id="svg22"
   sodipodi:docname="preferences-scroll.svg"
   inkscape:version="1.1.2 (0a00cf5339, 2022-02-04)"
   xmlns:inkscape="http://www.inkscape.org/namespaces/inkscape"
   xmlns:sodipodi="http://sodipodi.sourceforge.net/DTD/sodipodi-0.dtd"
   xmlns:xlink="http://www.w3.org/1999/xlink"
   xmlns="http://www.w3.org/2000/svg"
   xmlns:svg="http://www.w3.org/2000/svg">
  <sodipodi:namedview
     id="namedview24"
     pagecolor="#ffffff"
     bordercolor="#666666"
     borderopacity="1.0"
     inkscape:showpageshadow="2"
     inkscape:pageopacity="0.0"
     inkscape:pagecheckerboard="0"
     inkscape:deskcolor="#d1d1d1"
     showgrid="false"
     inkscape:zoom="25.62"
     inkscape:cx="11.202186"
     inkscape:cy="16.842311"
     inkscape:window-width="3440"
     inkscape:window-height="1356"
     inkscape:window-x="0"
     inkscape:window-y="0"
     inkscape:window-maximized="1"
     inkscape:current-layer="g851"
     inkscape:pageshadow="2" />
  <defs
     id="defs12">
    <linearGradient
       id="linearGradient1005-3-3"
       x1="5.2535"
       x2="9.3823996"
       y1="15.383"
       y2="2.9421"
       gradientTransform="matrix(0.99999,0,0,0.99999,1.632,-0.61743)"
       gradientUnits="userSpaceOnUse">
      <stop
         stop-color="#fa8200"
         offset="0"
         id="stop2" />
      <stop
         stop-color="#ff9600"
         offset=".36953"
         id="stop4" />
      <stop
         stop-color="#ffb400"
         offset="1"
         id="stop6" />
    </linearGradient>
    <filter
       id="filter4014"
       x="-0.062499933"
       y="-0.057692993"
       width="1.1249999"
       height="1.115386"
       color-interpolation-filters="sRGB">
      <feGaussianBlur
         stdDeviation="1.093751"
         id="feGaussianBlur9" />
    </filter>
    <linearGradient
       inkscape:collect="always"
       xlink:href="#linearGradient3487"
       id="linearGradient3403"
       gradientUnits="userSpaceOnUse"
       x1="6.9491749"
       y1="4.5549412"
       x2="11.215498"
       y2="59.052471" />
    <linearGradient
       id="linearGradient3487">
      <stop
         style="stop-color:#32373c;stop-opacity:1"
         offset="0"
         id="stop3481" />
      <stop
         id="stop3483"
         offset="0.36804965"
         style="stop-color:#1a1a1a;stop-opacity:1" />
      <stop
         style="stop-color:#31363b;stop-opacity:1"
         offset="1"
         id="stop3485" />
    </linearGradient>
    <linearGradient
       inkscape:collect="always"
       xlink:href="#linearGradient20604"
       id="linearGradient20558"
       gradientUnits="userSpaceOnUse"
       x1="25.802212"
       y1="20.373846"
       x2="25.111048"
       y2="58.912758" />
    <linearGradient
       id="linearGradient20604">
      <stop
         id="stop20598"
         offset="0"
         style="stop-color:#3d3d3d;stop-opacity:1" />
      <stop
         style="stop-color:#000000;stop-opacity:1"
         offset="0.61772454"
         id="stop20600" />
      <stop
         id="stop20602"
         offset="1"
         style="stop-color:#3d3d3d;stop-opacity:1" />
    </linearGradient>
    <filter
       inkscape:collect="always"
       style="color-interpolation-filters:sRGB"
       id="filter20720"
       x="-0.017024755"
       y="-0.016457183"
       width="1.0340491"
       height="1.0329144">
      <feGaussianBlur
         inkscape:collect="always"
         stdDeviation="0.14745661"
         id="feGaussianBlur20722" />
    </filter>
    <linearGradient
       gradientTransform="translate(0.36067797,-0.13016949)"
       xlink:href="#linearGradient4555"
       id="linearGradient4557"
       x1="43.499737"
       y1="64.011795"
       x2="44.141731"
       y2="0.30621234"
       gradientUnits="userSpaceOnUse" />
    <linearGradient
       id="linearGradient4555">
      <stop
         style="stop-color:#141618;stop-opacity:1"
         offset="0"
         id="stop4551" />
      <stop
         id="stop4559"
         offset="0.51820582"
         style="stop-color:#686868;stop-opacity:1" />
      <stop
         style="stop-color:#31363b;stop-opacity:1"
         offset="1"
         id="stop4553" />
    </linearGradient>
    <filter
       style="color-interpolation-filters:sRGB"
       id="filter4601"
       x="-0.030244762"
       width="1.0604895"
       y="-0.030100647"
       height="1.0602013">
      <feGaussianBlur
         stdDeviation="0.014790289"
         id="feGaussianBlur4603" />
    </filter>
    <linearGradient
       id="b"
       gradientTransform="matrix(0.41666692,0,0,0.40833269,-159.23827,-203.25094)"
       gradientUnits="userSpaceOnUse"
       x2="0"
       y1="543.79797"
       y2="502.65509">
      <stop
         offset="0"
         stop-color="#c6cdd1"
         id="stop3" />
      <stop
         offset="1"
         stop-color="#e0e5e7"
         id="stop5" />
    </linearGradient>
    <linearGradient
       id="c"
       gradientUnits="userSpaceOnUse"
       x1="5.3750029"
       x2="14.75002"
       y1="7.0000119"
       y2="16.37501">
      <stop
         offset="0"
         id="stop8" />
      <stop
         offset="1"
         stop-opacity="0"
         id="stop10" />
    </linearGradient>
    <linearGradient
       id="a"
       gradientUnits="userSpaceOnUse"
       x1="8.2082129"
       x2="19.360508"
       xlink:href="#c"
       y1="6.4030333"
       y2="18.837368"
       gradientTransform="matrix(1.2357703,0,0,1,-4.7154053,0)" />
    <linearGradient
       inkscape:collect="always"
       xlink:href="#c"
       id="linearGradient1287"
       gradientUnits="userSpaceOnUse"
       x1="8.2082129"
       y1="6.4030333"
       x2="19.360508"
       y2="18.837368"
       gradientTransform="matrix(1.2357703,0,0,1,-5.9511755,-6)" />
    <linearGradient
       inkscape:collect="always"
       xlink:href="#c"
       id="linearGradient891"
       gradientUnits="userSpaceOnUse"
       x1="5.3750029"
       y1="7.0000119"
       x2="14.75002"
       y2="16.37501" />
  </defs>
  <g
     id="g851"
     transform="matrix(1.3038321,0,0,1.503527,2.7764397,-1.1423783)">
    <path
       d="M 1.000006,2 H 21 V 20 H 1.000006 Z"
       fill="url(#b)"
       stroke-width="0.633866"
       id="path13"
       style="fill:url(#b)" />
    <path
       d="M 2,18 20,7 21,8 V 20 H 4 Z"
       fill="url(#c)"
       fill-rule="evenodd"
       opacity="0.2"
       stroke-width="0.625"
       id="path15"
       style="fill:url(#linearGradient891)" />
    <path
       d="M 1,2 H 21.000002 V 5 H 1 Z"
       fill="#566069"
       stroke-width="0.684653"
       id="path17" />
    <path
       d="M 1.000027,5 H 21 V 6 H 1.000027 Z"
       fill="#3daee9"
       stroke-width="0.790569"
       id="path19" />
    <path
       d="M 2,7 H 20 V 17.999999 H 2 Z"
       fill="#ffffff"
       stroke-width="0.574456"
       id="path21" />
    <rect
       fill="#eff0f1"
       height="1.2769544"
       rx="0.75"
       stroke-width="0.691996"
       width="1.5"
       x="18.75"
       y="2.75"
       id="rect23" />
    <path
       id="path25"
       style="opacity:0.3;fill:url(#a);stroke-width:1.11165"
       d="m 15.056919,14 -1.23577,2 2.47154,2 H 20 Z"
       sodipodi:nodetypes="ccccc" />
    <path
       id="path25-7"
       style="opacity:0.3;fill:url(#linearGradient1287);stroke-width:1.11165"
       d="M 13.821149,8 12.585378,10 20,16 v -3 z"
       sodipodi:nodetypes="ccccc" />
    <path
       style="fill:#4a525a;stroke-width:1.11165"
       d="m 13.821149,8 -1.235771,2 h 2.471541 z m 0,3.5 c -0.342309,0 -0.617885,0.223 -0.617885,0.5 0,0.28 0.275576,0.5 0.617885,0.5 0.342308,0 0.617885,-0.223 0.617885,-0.5 0,-0.277 -0.275577,-0.5 -0.617885,-0.5 z m -1.235771,2.5 1.235771,2 1.23577,-2 z"
       id="path214" />
  </g>
  <path
     style="display:inline;mix-blend-mode:normal;fill:url(#linearGradient3403);fill-opacity:1;stroke:url(#linearGradient20558);stroke-width:1.16242;stroke-linecap:butt;stroke-linejoin:round;stroke-miterlimit:4;stroke-dasharray:none;stroke-opacity:1;filter:url(#filter20720)"
     d="M 4.7043071,3.9814882 4.6913695,60.80196 H 58.59546 l 1.022155,-2.866369 c 0,0 -23.87537,0.766388 -32.844441,-4.140386 C 16.257548,48.042344 11.401114,4.0978197 11.401114,4.0978197 Z"
     id="path1686"
     sodipodi:nodetypes="ccccscc"
     transform="matrix(0.49530655,0,0,0.49530655,0.32409325,0.23228439)"
     inkscape:label="folder" />
  <rect
     style="display:inline;fill:none;fill-opacity:1;stroke:url(#linearGradient4557);stroke-width:3.71366;stroke-linejoin:round;stroke-miterlimit:7.8;stroke-dasharray:none;stroke-opacity:0.995146;filter:url(#filter4601)"
     id="rect4539"
     width="62.567089"
     height="62.866646"
     x="1.0323594"
     y="0.59551275"
     ry="6.2447233"
     rx="5.8029528"
     transform="matrix(0.46399463,0,0,0.4630489,1.1562887,1.2331482)"
     inkscape:label="contour" />
</svg>

<svg width="32" height="32" version="1.1" viewBox="0 0 32 32" xmlns="http://www.w3.org/2000/svg" xmlns:xlink="http://www.w3.org/1999/xlink">
<defs>
<linearGradient id="linearGradient3403" x1="6.9492" x2="11.215" y1="4.5549" y2="59.052" gradientUnits="userSpaceOnUse">
<stop style="stop-color:#32373c" offset="0"/>
<stop style="stop-color:#1a1a1a" offset=".36805"/>
<stop style="stop-color:#31363b" offset="1"/>
</linearGradient>
<linearGradient id="linearGradient20558" x1="25.802" x2="25.111" y1="20.374" y2="58.913" gradientUnits="userSpaceOnUse">
<stop style="stop-color:#3d3d3d" offset="0"/>
<stop offset=".61772"/>
<stop style="stop-color:#3d3d3d" offset="1"/>
</linearGradient>
<linearGradient id="linearGradient4557" x1="43.5" x2="44.142" y1="64.012" y2=".30621" gradientTransform="translate(.36068 -.13017)" gradientUnits="userSpaceOnUse">
<stop style="stop-color:#141618" offset="0"/>
<stop style="stop-color:#686868" offset=".51821"/>
<stop style="stop-color:#31363b" offset="1"/>
</linearGradient>
<linearGradient id="b" x2="0" y1="543.8" y2="502.66" gradientTransform="matrix(.41667 0 0 .40833 -159.24 -203.25)" gradientUnits="userSpaceOnUse">
<stop stop-color="#c6cdd1" offset="0"/>
<stop stop-color="#e0e5e7" offset="1"/>
</linearGradient>
<linearGradient id="c" x1="5.375" x2="14.75" y1="7" y2="16.375" gradientUnits="userSpaceOnUse">
<stop offset="0"/>
<stop stop-opacity="0" offset="1"/>
</linearGradient>
<linearGradient id="a" x1="8.2082" x2="19.361" y1="6.403" y2="18.837" gradientTransform="matrix(1.2358 0 0 1 -4.7154 0)" gradientUnits="userSpaceOnUse" xlink:href="#c"/>
<linearGradient id="linearGradient1287" x1="8.2082" x2="19.361" y1="6.403" y2="18.837" gradientTransform="matrix(1.2358 0 0 1 -5.9512 -6)" gradientUnits="userSpaceOnUse" xlink:href="#c"/>
<linearGradient id="linearGradient891" x1="5.375" x2="14.75" y1="7" y2="16.375" gradientUnits="userSpaceOnUse" xlink:href="#c"/>
</defs>
<g transform="matrix(1.3038 0 0 1.5035 2.7764 -1.1424)">
<path d="m1 2h20v18h-20z" fill="url(#b)" stroke-width=".63387" style="fill:url(#b)"/>
<path d="m2 18 18-11 1 1v12h-17z" fill="url(#c)" fill-rule="evenodd" opacity=".2" stroke-width=".625" style="fill:url(#linearGradient891)"/>
<path d="m1 2h20v3h-20z" fill="#566069" stroke-width=".68465"/>
<path d="m1 5h20v1h-20z" fill="#3daee9" stroke-width=".79057"/>
<path d="m2 7h18v11h-18z" fill="#fff" stroke-width=".57446"/>
<rect x="18.75" y="2.75" width="1.5" height="1.277" rx=".75" fill="#eff0f1" stroke-width=".692"/>
<path d="m15.057 14-1.2358 2 2.4715 2h3.7073z" style="fill:url(#a);opacity:.3;stroke-width:1.1116"/>
<path d="m13.821 8-1.2358 2 7.4146 6v-3z" style="fill:url(#linearGradient1287);opacity:.3;stroke-width:1.1116"/>
<path d="m13.821 8-1.2358 2h2.4715zm0 3.5c-0.34231 0-0.61788 0.223-0.61788 0.5 0 0.28 0.27558 0.5 0.61788 0.5 0.34231 0 0.61788-0.223 0.61788-0.5s-0.27558-0.5-0.61788-0.5zm-1.2358 2.5 1.2358 2 1.2358-2z" style="fill:#4a525a;stroke-width:1.1116"/>
</g>
<path transform="matrix(.49531 0 0 .49531 .32409 .23228)" d="m4.7043 3.9815-0.012938 56.82h53.904l1.0222-2.8664s-23.875 0.76639-32.844-4.1404c-10.516-5.7529-15.372-49.697-15.372-49.697z" style="fill:url(#linearGradient3403);mix-blend-mode:normal;stroke-linejoin:round;stroke-width:1.1624;stroke:url(#linearGradient20558)"/>
<rect transform="matrix(.46399 0 0 .46305 1.1563 1.2331)" x="1.0324" y=".59551" width="62.567" height="62.867" rx="5.803" ry="6.2447" style="fill:none;stroke-linejoin:round;stroke-miterlimit:7.8;stroke-opacity:.99515;stroke-width:3.7137;stroke:url(#linearGradient4557)"/>
</svg>
